web/ui/src/assets/svgs/error/404.svg

<svg height="245" viewBox="0 0 391 245" width="391" xmlns="http://www.w3.org/2000/svg" xmlns:xlink="http://www.w3.org/1999/xlink"><mask id="a" fill="#fff"><path d="m.33411304.29686674h120.54469596v125.59148026h-120.54469596z" fill="#fff" fill-rule="evenodd"/></mask><g fill="none" fill-rule="evenodd"><g fill-rule="nonzero"><path d="m18.7208445 216.431254c49.1191051 53.278409 228.0348905 10.252703 275.7095495-12.047905 83.037365-38.841598 40.838104 59.548297 83.551747 8.052581 31.635262-38.138592 3.691804-136.3939287-63.011137-181.9392656-58.087743-39.6627404-123.131401-39.22796084-199.810825-6.8693232-81.66618 34.463784-149.3007344 135.4672378-96.4393345 192.8039128z" fill="#deecfd" opacity=".20062156744"/><path d="m74 0h242v242h-242z" fill="#000" opacity="0"/><g fill="#e7f2ff"><path d="m190.081985 46.2539821c0 3.2695241-2.665792 5.9164065-5.944054 5.9164065h-23.78308c-1.576828.0010679-3.089485-.6217542-4.205133-1.7314251-1.114611-1.1100647-1.741375-2.6151896-1.742709-4.1849814 0-3.268581 2.663188-5.9206488 5.948079-5.9206488h23.78308c3.278025-.0002357 5.943817 2.6520678 5.943817 5.9206488zm32.369961 0c0 3.2695241-1.873867 5.9164052-4.186193 5.9164052h-16.730332c-2.31493 0-4.186193-2.6492387-4.186193-5.9164052 0-3.268581 1.871026-5.9206488 4.186193-5.9206488h16.730332c2.312326-.0002357 4.186193 2.6520678 4.186193 5.9206488zm36.333374 24.0110094c0 1.8327677-.730734 3.5905434-2.032353 4.8862848-1.301618 1.2957413-3.067014 2.0232007-4.907466 2.0222008h-68.703099c-3.830123 0-6.935558-3.0924691-6.935558-6.9082498 0-3.8138947 3.105672-6.9065993 6.935558-6.9065993h68.703336c1.840212-.0008934 3.605386.7263305 4.907093 2.0216455 1.301085 1.2954675 2.032489 3.0525202 2.032489 4.884718zm18.498372 24.6685449c0 3.634481-2.95794 6.5814846-6.608844 6.5814846h-103.716124c-3.649721 0-6.607661-2.945589-6.607661-6.5800701 0-3.6330664 2.958177-6.5798346 6.607661-6.5798346h103.713757c3.649483 0 6.608844 2.9444106 6.611211 6.5784201zm5.945475 23.3574816c0 1.832483-.730462 3.590023-2.031306 4.886133-1.300696 1.296271-3.065496 2.024484-4.905673 2.024238h-19.161979c-3.832727 0-6.938399-3.093883-6.938399-6.909192 0-3.815781 3.105435-6.909663 6.938399-6.909663h19.161979c1.839539 0 3.604028.728027 4.905673 2.022823 1.300398 1.296214 2.031306 3.053419 2.031306 4.885661zm-38.317803 0c0 3.817431-4.614472 6.910371-10.319647 6.910371h-132.633577c-5.6949936 0-10.3123067-3.089875-10.3123067-6.910371 0-3.816016 4.6170763-6.908484 10.3123067-6.908484h132.633577c5.705175.000235 10.319647 3.092703 10.319647 6.908484z"/><path d="m203.402443 147.394563c0 2.098558-.834461 4.111272-2.319859 5.596013-1.486213 1.483949-3.50199 2.317636-5.603861 2.317636h-113.5550314c-2.830346-.000305-5.4456408-1.507824-6.8611518-3.954935-1.4167197-2.447248-1.4167197-5.463565 0-7.910814 1.4148287-2.447976 4.0303953-3.956193 6.8611518-3.956352h113.5550314c2.101242-.000332 4.116535.832851 5.602442 2.316219 1.486423 1.482627 2.321278 3.494446 2.321278 5.592233zm101.673946 27.946519c-.00142 4.329121-3.51516 7.838056-7.851321 7.839474h-94.553244c-4.257137-.110792-7.649029-3.588545-7.649029-7.839474 0-4.251164 3.391892-7.728209 7.649029-7.839473h94.550878c4.335924.002363 7.851084 3.510589 7.853687 7.839473z"/><path d="m289.178486 201.667298c0 2.007308-.597234 3.932329-1.660449 5.35095-1.063647 1.416735-2.504681 2.211886-4.006797 2.210918h-105.537882c-3.126414 0-5.660858-3.385586-5.660858-7.561868s2.534444-7.563131 5.660858-7.563131h105.538118c3.129963 0 5.66701 3.384953 5.66701 7.563131zm21.779847 0c0 4.174386-2.533261 7.559971-5.659675 7.561867h-4.520216c-3.127834 0-5.662278-3.385585-5.662278-7.561867s2.534444-7.563131 5.662278-7.563131h4.51998c3.122865 0 5.659911 3.384953 5.659911 7.563131z"/></g></g><g fill="#6fb3ff" transform="translate(40 69)"><path d="m0 76.8693735v16.5224101h50.8258483v32.6082164h22.6822995v-32.6082164h14.4918522v-18.9134269h-14.7020099l.4203155-73.26173221-29.1933866-.21662449zm23.1026151-2.6081205 28.5629133-50.8703321-.8396801 51.3050188z"/><path d="m224 76.8693735v16.5224101h50.825848v32.6082164h22.6823v-32.6082164h14.491852v-18.9134269h-14.70201l.420316-73.26173221-29.193387-.21662449zm23.102615-2.6081205 28.563389-50.8703321-.840156 51.3050188z"/><path d="m41.5994174 107.000404c-12.8250435-.259435-17.6047826-18.6348257-17.6047826-43.2735207s4.1890869-45.2470483 17.6363478-45.2470483c12.8283913 0 18.9816957 16.6402377 18.9816957 43.9781129 0 26.1369099-5.0705218 44.8243891-19.0132609 44.5424561m73.0619996-44.8837428h-42.565217c-.3070435 0-.6064348.0296771-.9010435.0727568-2.7509565-.641887-4.8022174-3.105565-4.8022174-6.0546073 0-3.436321 2.7834783-6.2226179 6.2173913-6.2226179h10.3065218c-.0086087-.0813727-.0196087-.1598734-.0282174-.2407674h4.511913c3.4334348 0 6.2173913-2.7858182 6.2173913-6.222618 0-3.436321-2.7839565-6.2226179-6.2173913-6.2226179h-12.2841304c-2.6074783-.7395342-4.5200435-3.1347634-4.5200435-5.9818505 0-3.4363211 2.7834783-6.2226179 6.2173913-6.2226179h.0674348c-.0358696-.0813727-.0731739-.1598734-.108087-.2407675h37.888304c3.433435 0 6.217392-2.7858181 6.217392-6.2226179 0-3.4363211-2.783957-6.2226179-6.217392-6.2226179h-45.5849561c-6.7726522-7.7696565-15.816087-12.03885106-26.9131739-12.03885106-27.8859566 0-41.82917396 28.32631416-41.82917396 63.00735716 0 34.6810431 15.22734786 62.5842191 41.82917396 62.5842191 3.5486956 0 6.8855217-.462867 10.0071304-1.346h31.9698261c3.433913 0 6.2173913-2.785818 6.2173913-6.222618 0-3.436321-2.7834783-6.222618-6.2173913-6.222618h-13.9216957c.0196087-.02489.0401739-.049302.0597826-.074671-2.8666956-.553335-5.0336956-3.075888-5.0336956-6.106782 0-3.436321 2.7839565-6.2226177 6.2173913-6.2226177h5.8453043c.0325218-.0794581.0636087-.1613094.0956522-.2407675h26.7366954c3.433435 0 6.217392-2.7858182 6.217392-6.2226179 0-3.4363211-2.783957-6.2226179-6.217392-6.2226179h-27.403391c-2.6074783-.7395343-4.5200435-3.1347635-4.5200435-5.9818505 0-3.4363211 2.7834782-6.222618 6.2173913-6.222618h4.621913c.0071739-.079458.0119565-.1613094.0191305-.2407674h31.5867387c3.433435 0 6.217392-2.7858182 6.217392-6.2226179 0-3.4363211-2.783957-6.222618-6.217392-6.222618" mask="url(#a)" transform="translate(99)"/></g></g></svg>

<?xml version="1.0" encoding="UTF-8"?>
<svg width="391px" height="245px" viewBox="0 0 391 245" version="1.1" xmlns="http://www.w3.org/2000/svg" xmlns:xlink="http://www.w3.org/1999/xlink">
    <title>bg_404</title>
    <defs>
        <polygon id="path-1" points="0.334113043 0.296866742 120.878809 0.296866742 120.878809 125.888347 0.334113043 125.888347"></polygon>
    </defs>
    <g id="页面-1" stroke="none" stroke-width="1" fill="none" fill-rule="evenodd">
        <g id="建木-404" transform="translate(-755.000000, -333.000000)">
            <g id="bg_404" transform="translate(755.000000, 333.000000)">
                <g id="编组-3" fill-rule="nonzero">
                    <g id="bg备份-2" opacity="0.367278343" fill="#DEECFD">
                        <path d="M18.7208445,216.431254 C67.8399496,269.709663 246.755735,226.683957 294.430394,204.383349 C377.467759,165.541751 335.268498,263.931646 377.982141,212.43593 C409.617403,174.297338 381.673945,76.0420013 314.971004,30.4966644 C256.883261,-9.166076 191.839603,-8.73129644 115.160179,23.6273412 C33.493999,58.0911252 -34.1405554,159.094579 18.7208445,216.431254 Z" id="Shape" opacity="0.546239099"></path>
                    </g>
                    <rect id="矩形" fill="#000000" opacity="0" x="74" y="0" width="242" height="242"></rect>
                    <path d="M190.081985,46.2539821 C190.081985,49.5235062 187.416193,52.1703886 184.137931,52.1703886 L160.354851,52.1703886 C158.778023,52.1714565 157.265366,51.5486344 156.149718,50.4389635 C155.035107,49.3288988 154.408343,47.8237739 154.407009,46.2539821 C154.407009,42.9854011 157.070197,40.3333333 160.355088,40.3333333 L184.138168,40.3333333 C187.416193,40.3330976 190.081985,42.9854011 190.081985,46.2539821 L190.081985,46.2539821 Z M222.451946,46.2539821 C222.451946,49.5235062 220.578079,52.1703873 218.265753,52.1703873 L201.535421,52.1703873 C199.220491,52.1703873 197.349228,49.5211486 197.349228,46.2539821 C197.349228,42.9854011 199.220254,40.3333333 201.535421,40.3333333 L218.265753,40.3333333 C220.578079,40.3330976 222.451946,42.9854011 222.451946,46.2539821 Z M258.78532,70.2649915 C258.78532,72.0977592 258.054586,73.8555349 256.752967,75.1512763 C255.451349,76.4470176 253.685953,77.174477 251.845501,77.1734771 L183.142402,77.1734771 C179.312279,77.1734771 176.206844,74.081008 176.206844,70.2652273 C176.206844,66.4513326 179.312516,63.358628 183.142402,63.358628 L251.845738,63.358628 C253.68595,63.3577346 255.451124,64.0849585 256.752831,65.3802735 C258.053916,66.675741 258.78532,68.4327937 258.78532,70.2649915 L258.78532,70.2649915 Z M277.283692,94.9335364 C277.283692,98.5680174 274.325752,101.515021 270.674848,101.515021 L166.958724,101.515021 C163.309003,101.515021 160.351063,98.569432 160.351063,94.9349509 C160.351063,91.3018845 163.30924,88.3551163 166.958724,88.3551163 L270.672481,88.3551163 C274.321964,88.3551163 277.281325,91.2995269 277.283692,94.9335364 Z M283.229167,118.291018 C283.229167,120.123501 282.498705,121.881041 281.197861,123.177151 C279.897165,124.473422 278.132365,125.201635 276.292188,125.201389 L257.130209,125.201389 C253.297482,125.201389 250.19181,122.107506 250.19181,118.292197 C250.19181,114.476416 253.297245,111.382534 257.130209,111.382534 L276.292188,111.382534 C278.131727,111.382534 279.896216,112.110561 281.197861,113.405357 C282.498259,114.701571 283.229167,116.458776 283.229167,118.291018 Z M244.911364,118.291018 C244.911364,122.108449 240.296892,125.201389 234.591717,125.201389 L101.95814,125.201389 C96.2631464,125.201389 91.6458333,122.111514 91.6458333,118.291018 C91.6458333,114.475002 96.2629096,111.382534 101.95814,111.382534 L234.591717,111.382534 C240.296892,111.382769 244.911364,114.475237 244.911364,118.291018 L244.911364,118.291018 Z" id="形状" fill="#E7F2FF"></path>
                    <path d="M203.402443,147.394563 C203.402443,149.493121 202.567982,151.505835 201.082584,152.990576 C199.596371,154.474525 197.580594,155.308212 195.478723,155.308212 L81.9236916,155.308212 C79.0933456,155.307907 76.4780508,153.800388 75.0625398,151.353277 C73.6458201,148.906029 73.6458201,145.889712 75.0625398,143.442463 C76.4773685,140.994487 79.0929351,139.48627 81.9236916,139.486111 L195.478723,139.486111 C197.579965,139.485779 199.595258,140.318962 201.081165,141.80233 C202.567588,143.284957 203.402443,145.296776 203.402443,147.394563 L203.402443,147.394563 Z M305.076389,175.341082 C305.074969,179.670203 301.561229,183.179138 297.225068,183.180556 L202.671824,183.180556 C198.414687,183.069764 195.022795,179.592011 195.022795,175.341082 C195.022795,171.089918 198.414687,167.612873 202.671824,167.501609 L297.222702,167.501609 C301.558626,167.503972 305.073786,171.012198 305.076389,175.341082 L305.076389,175.341082 Z" id="形状" fill="#E7F2FF"></path>
                    <path d="M289.178486,201.667298 C289.178486,203.674606 288.581252,205.599627 287.518037,207.018248 C286.45439,208.434983 285.013356,209.230134 283.51124,209.229166 L177.973358,209.229166 C174.846944,209.229166 172.3125,205.84358 172.3125,201.667298 C172.3125,197.491016 174.846944,194.104167 177.973358,194.104167 L283.511476,194.104167 C286.641439,194.104167 289.178486,197.48912 289.178486,201.667298 Z M310.958333,201.667298 C310.958333,205.841684 308.425072,209.227269 305.298658,209.229165 L300.778442,209.229165 C297.650608,209.229165 295.116164,205.84358 295.116164,201.667298 C295.116164,197.491016 297.650608,194.104167 300.778442,194.104167 L305.298422,194.104167 C308.421287,194.104167 310.958333,197.48912 310.958333,201.667298 Z" id="形状" fill="#E7F2FF"></path>
                </g>
                <g id="编组" transform="translate(40.000000, 69.000000)">
                    <path d="M0,76.8693735 L0,93.3917836 L50.8258483,93.3917836 L50.8258483,126 L73.5081478,126 L73.5081478,93.3917836 L88,93.3917836 L88,74.4783567 L73.2979901,74.4783567 L73.7183056,1.21662449 L44.524919,1 L0,76.8693735 Z M23.1026151,74.261253 L51.6655284,23.3909209 L50.8258483,74.6959397 L23.1026151,74.261253 Z" id="Fill-1" fill="#6FB3FF"></path>
                    <path d="M224,76.8693735 L224,93.3917836 L274.825848,93.3917836 L274.825848,126 L297.508148,126 L297.508148,93.3917836 L312,93.3917836 L312,74.4783567 L297.29799,74.4783567 L297.718306,1.21662449 L268.524919,1 L224,76.8693735 Z M247.102615,74.261253 L275.666004,23.3909209 L274.825848,74.6959397 L247.102615,74.261253 Z" id="Fill-2" fill="#6FB3FF"></path>
                    <g transform="translate(99.000000, 0.000000)">
                        <mask id="mask-2" fill="white">
                            <use xlink:href="#path-1"></use>
                        </mask>
                        <g id="Clip-4"></g>
                        <path d="M41.5994174,107.000404 C28.7743739,106.740969 23.9946348,88.3655783 23.9946348,63.7268833 C23.9946348,39.0881883 28.1837217,18.479835 41.6309826,18.479835 C54.4593739,18.479835 60.6126783,35.1200727 60.6126783,62.4579479 C60.6126783,88.5948578 55.5421565,107.282337 41.5994174,107.000404 M114.661417,62.1166612 L72.0962,62.1166612 C71.7891565,62.1166612 71.4897652,62.1463383 71.1951565,62.189418 C68.4442,61.547531 66.3929391,59.083853 66.3929391,56.1348107 C66.3929391,52.6984897 69.1764174,49.9121928 72.6103304,49.9121928 L82.9168522,49.9121928 C82.9082435,49.8308201 82.8972435,49.7523194 82.8886348,49.6714254 L87.4005478,49.6714254 C90.8339826,49.6714254 93.6179391,46.8856072 93.6179391,43.4488074 C93.6179391,40.0124864 90.8339826,37.2261895 87.4005478,37.2261895 L75.1164174,37.2261895 C72.5089391,36.4866553 70.5963739,34.0914261 70.5963739,31.244339 C70.5963739,27.8080179 73.3798522,25.0217211 76.8137652,25.0217211 L76.8812,25.0217211 C76.8453304,24.9403484 76.8080261,24.8618477 76.773113,24.7809536 L114.661417,24.7809536 C118.094852,24.7809536 120.878809,21.9951355 120.878809,18.5583357 C120.878809,15.1220146 118.094852,12.3357178 114.661417,12.3357178 L69.0764609,12.3357178 C62.3038087,4.5660613 53.2603739,0.296866742 42.163287,0.296866742 C14.2773304,0.296866742 0.334113043,28.6231809 0.334113043,63.3042239 C0.334113043,97.985267 15.5614609,125.888443 42.163287,125.888443 C45.7119826,125.888443 49.0488087,125.425576 52.1704174,124.542443 L84.1402435,124.542443 C87.5741565,124.542443 90.3576348,121.756625 90.3576348,118.319825 C90.3576348,114.883504 87.5741565,112.097207 84.1402435,112.097207 L70.2185478,112.097207 C70.2381565,112.072317 70.2587217,112.047905 70.2783304,112.022536 C67.4116348,111.469201 65.2446348,108.946648 65.2446348,105.915754 C65.2446348,102.479433 68.0285913,99.6931363 71.4620261,99.6931363 L77.3073304,99.6931363 C77.3398522,99.6136782 77.3709391,99.5318269 77.4029826,99.4523688 L104.139678,99.4523688 C107.573113,99.4523688 110.35707,96.6665506 110.35707,93.2297509 C110.35707,89.7934298 107.573113,87.007133 104.139678,87.007133 L76.736287,87.007133 C74.1288087,86.2675987 72.2162435,83.8723695 72.2162435,81.0252825 C72.2162435,77.5889614 74.9997217,74.8026645 78.4336348,74.8026645 L83.0555478,74.8026645 C83.0627217,74.7232065 83.0675043,74.6413551 83.0746783,74.5618971 L114.661417,74.5618971 C118.094852,74.5618971 120.878809,71.7760789 120.878809,68.3392792 C120.878809,64.9029581 118.094852,62.1166612 114.661417,62.1166612" id="Fill-3" fill="#6FB3FF" mask="url(#mask-2)"></path>
                    </g>
                </g>
            </g>
        </g>
    </g>
</svg>
